src/catppuccin-frappe-yellow-cursors/openhand_24.svg

<?xml version="1.0" encoding="UTF-8" standalone="no"?>
<svg
   id="svg6031"
   width="24"
   height="24"
   version="1.1"
   sodipodi:docname="openhand_24.svg"
   inkscape:version="1.1.2 (0a00cf5339, 2022-02-04)"
   xmlns:inkscape="http://www.inkscape.org/namespaces/inkscape"
   xmlns:sodipodi="http://sodipodi.sourceforge.net/DTD/sodipodi-0.dtd"
   xmlns="http://www.w3.org/2000/svg"
   xmlns:svg="http://www.w3.org/2000/svg">
  <sodipodi:namedview
     id="namedview15"
     pagecolor="#ffffff"
     bordercolor="#666666"
     borderopacity="1.0"
     inkscape:pageshadow="2"
     inkscape:pageopacity="0.0"
     inkscape:pagecheckerboard="0"
     showgrid="true"
     inkscape:zoom="24.48"
     inkscape:cx="15.931373"
     inkscape:cy="9.3545752"
     inkscape:window-width="1896"
     inkscape:window-height="1020"
     inkscape:window-x="9"
     inkscape:window-y="45"
     inkscape:window-maximized="1"
     inkscape:current-layer="svg6031">
    <inkscape:grid
       type="xygrid"
       id="grid1184" />
  </sodipodi:namedview>
  <defs
     id="defs6033">
    <filter
       id="filter852"
       style="color-interpolation-filters:sRGB"
       width="1.098"
       height="1.094"
       x="-0.050000001"
       y="-0.050000001">
      <feGaussianBlur
         id="feGaussianBlur854"
         stdDeviation=".43" />
    </filter>
    <filter
       id="filter901"
       style="color-interpolation-filters:sRGB"
       width="1.098"
       height="1.094"
       x="-0.050000001"
       y="-0.050000001">
      <feGaussianBlur
         id="feGaussianBlur903"
         stdDeviation=".43" />
    </filter>
    <filter
       id="filter854"
       style="color-interpolation-filters:sRGB"
       width="1.123"
       height="1.117"
       x="-0.059999999"
       y="-0.059999999">
      <feGaussianBlur
         id="feGaussianBlur856"
         stdDeviation=".538" />
    </filter>
    <filter
       id="filter829"
       style="color-interpolation-filters:sRGB"
       width="1.1474286"
       height="1.1407273"
       x="-0.073714286"
       y="-0.070363633">
      <feGaussianBlur
         id="feGaussianBlur831"
         stdDeviation=".645" />
    </filter>
    <filter
       inkscape:collect="always"
       style="color-interpolation-filters:sRGB"
       id="filter1320"
       x="-0.024236604"
       y="-0.022821203"
       width="1.0484732"
       height="1.0456424">
      <feGaussianBlur
         inkscape:collect="always"
         stdDeviation="0.16165883"
         id="feGaussianBlur1322" />
    </filter>
  </defs>
  <path
     style="color:#000000;opacity:0.1;fill:#000000;fill-opacity:1;stroke-linecap:round;stroke-linejoin:round;-inkscape-stroke:none;filter:url(#filter1320)"
     d="M 11.326113,3.5038553 C 10.5532,3.5527434 10.05191,4.053765 9.7362691,4.6776834 9.349748,4.3690918 8.8540479,4.1933017 8.3065816,4.234324 a 1.0001,1.0001 0 0 0 -0.015625,0.00195 C 7.0474198,4.3512016 6.2389537,5.46048 6.4433004,6.6737771 l -0.00195,-0.00195 0.8300782,5.0019509 C 7.1455095,11.598773 6.9771108,11.405239 6.8554097,11.34565 6.1514083,11.000945 5.4447897,10.913336 4.859316,11.119088 3.6883686,11.530591 3.5175191,12.730416 3.5175191,12.730416 a 1.0001,1.0001 0 0 0 0.4121094,1.007812 c 0.905918,0.628663 1.8878638,2.180522 2.8300781,3.644531 0.4711072,0.732005 0.9397732,1.439243 1.4980469,2.021485 0.5582737,0.582242 1.2767397,1.10177 2.1914065,1.095703 h 5.839844 A 1.0001,1.0001 0 0 0 17.281191,19.6269 c 0,0 0.690507,-5.252911 1.097656,-6.935547 l 1.060547,-4.3867165 c 0.352655,-1.388362 -0.696712,-2.7128907 -2.144531,-2.609375 -0.280931,0.017732 -0.492726,0.1764042 -0.728516,0.2910156 l 0.01367,-0.2734375 -0.002,0.013672 C 16.657597,4.461299 15.671323,3.4197268 14.38666,3.5038553 13.780756,3.5424153 13.310771,3.8516287 12.964785,4.2772928 12.575894,3.809936 12.049415,3.495689 11.376894,3.5214334 c -0.01906,7.297e-4 -0.02964,-0.018809 -0.04883,-0.017578 z m 2.193359,1.9941406 0.002,0.013672 c -6.1e-5,-0.00159 -0.0019,-0.00232 -0.002,-0.00391 z m -2.066406,0.00195 a 1.0001,1.0001 0 0 0 0.002,0 c -0.06855,0.00446 0.06715,0.1091638 0.06641,0.089844 a 1.0001,1.0001 0 0 0 0.002,0.013672 l 0.265625,5.0371071 c 0.03175,0.601059 0.642253,1.150245 1.1875,1.162109 0.272623,0.0059 0.556236,-0.07482 0.800781,-0.277343 0.244544,-0.202522 0.414353,-0.548971 0.429687,-0.867188 L 14.45121,5.5976056 a 1.0001,1.0001 0 0 0 0,-0.00781 c -3.5e-4,0.009 0.116416,-0.093275 0.0625,-0.089844 a 1.0001,1.0001 0 0 0 0.002,0 c -0.08179,0.00543 0.06461,0.1300691 0.06641,0.1015625 a 1.0001,1.0001 0 0 0 0,0.015625 l -0.265625,5.5371079 c -0.0043,0.08896 -0.0059,0.174366 0.0098,0.289062 0.01568,0.114697 -0.09514,0.250796 0.322266,0.646485 0.208703,0.197844 0.782113,0.333289 1.101562,0.193359 0.319449,-0.13993 0.399852,-0.303501 0.460938,-0.40039 0.122171,-0.19378 0.132073,-0.28016 0.158203,-0.378907 l 0.984375,-3.7148419 a 1.0001,1.0001 0 0 0 0.0078,-0.033203 c 3.91e-4,-0.00172 0.09559,-0.070422 0.06055,-0.068359 a 1.0001,1.0001 0 0 0 0.01563,0 c -0.10843,0.00827 0.05161,0.1755787 0.06445,0.125 a 1.0001,1.0001 0 0 0 -0.0021,0.00976 L 16.433535,12.22065 c -0.438925,1.813958 -0.871645,5.295477 -0.998047,6.279297 H 10.4433 a 1.0001,1.0001 0 0 0 -0.0059,0 C 10.317328,18.500744 10.076426,18.408868 9.703066,18.019478 9.3297063,17.630089 8.8959568,17.005146 8.4413472,16.298775 7.8704481,15.411714 7.2223557,14.450664 6.4901754,13.556588 c 0.3743801,0.249151 0.7330681,0.460375 1.3378906,1.082031 a 1.0001,1.0001 0 0 0 1.6835938,-0.445313 c 0,0 0.039372,-0.150718 0.0625,-0.335937 0.023128,-0.185219 0.079442,-0.410726 -0.066406,-0.820313 L 9.5526758,13.208931 8.415957,6.343699 a 1.0001,1.0001 0 0 0 -0.00195,-0.00195 c 0.00378,0.022445 0.07954,-0.079143 0.052734,-0.1015625 -0.00789,0.020815 0.058095,0.074779 0.056641,0.064453 a 1.0001,1.0001 0 0 0 0.00586,0.035156 l 0.849609,4.7871075 c 0.052688,0.296741 0.2624642,0.626987 0.5507812,0.792969 0.2883168,0.165982 0.6041158,0.183623 0.8710938,0.111328 0.533956,-0.144591 0.907553,-0.733621 0.878907,-1.248047 L 11.390566,5.609324 a 1.0001,1.0001 0 0 0 0,-0.00781 c 0.0011,0.017709 0.128603,-0.1056888 0.0625,-0.101565 z M 7.6171285,13.679635 a 1.0001,1.0001 0 0 0 0.00781,0.02734 c -0.019197,-0.05391 -0.00379,-0.0029 -0.00977,-0.02539 z"
     id="path1282" />
  <path
     style="color:#000000;fill:#303446;stroke-linecap:round;stroke-linejoin:round;-inkscape-stroke:none;fill-opacity:1"
     d="M 10.826172,3.0039063 C 10.053259,3.0527944 9.5519691,3.553816 9.2363281,4.1777344 8.849807,3.8691428 8.3541069,3.6933527 7.8066406,3.734375 a 1.0001,1.0001 0 0 0 -0.015625,0.00195 C 6.5474788,3.8512526 5.7390127,4.960531 5.9433594,6.1738281 l -0.00195,-0.00195 0.8300782,5.001953 C 6.6455685,11.098826 6.4771698,10.905292 6.3554687,10.845703 5.6514673,10.500998 4.9448487,10.413389 4.359375,10.619141 3.1884276,11.030644 3.0175781,12.230469 3.0175781,12.230469 a 1.0001,1.0001 0 0 0 0.4121094,1.007812 c 0.905918,0.628663 1.8878638,2.180522 2.8300781,3.644531 0.4711072,0.732005 0.9397732,1.439243 1.4980469,2.021485 C 8.3160862,19.486539 9.0345522,20.006067 9.9492188,20 h 5.8398442 a 1.0001,1.0001 0 0 0 0.992187,-0.873047 c 0,0 0.690507,-5.252911 1.097656,-6.935547 l 1.060547,-4.3867185 c 0.352655,-1.388362 -0.696712,-2.7128907 -2.144531,-2.609375 -0.280931,0.017732 -0.492726,0.1764042 -0.728516,0.2910156 l 0.01367,-0.2734375 -0.002,0.013672 C 16.157655,3.96135 15.171382,2.9197778 13.886719,3.0039063 13.280815,3.0424668 12.81083,3.3516797 12.464844,3.7773438 12.075953,3.309987 11.549474,2.99574 10.876953,3.0214844 c -0.01906,7.297e-4 -0.02964,-0.018809 -0.04883,-0.017578 z m 2.193359,1.9941406 0.002,0.013672 c -6.1e-5,-0.00159 -0.0019,-0.00232 -0.002,-0.00391 z M 10.953125,5 a 1.0001,1.0001 0 0 0 0.002,0 c -0.06855,0.00446 0.06715,0.1091638 0.06641,0.089844 a 1.0001,1.0001 0 0 0 0.002,0.013672 l 0.265625,5.0371094 c 0.03175,0.601059 0.642253,1.150245 1.1875,1.162109 0.272623,0.0059 0.556236,-0.07482 0.800781,-0.277343 0.244544,-0.202522 0.414353,-0.548971 0.429687,-0.867188 l 0.244141,-5.0605468 a 1.0001,1.0001 0 0 0 0,-0.00781 c -3.5e-4,0.009 0.116416,-0.093275 0.0625,-0.089844 a 1.0001,1.0001 0 0 0 0.002,0 c -0.08179,0.00543 0.06461,0.1300691 0.06641,0.1015625 a 1.0001,1.0001 0 0 0 0,0.015625 l -0.265625,5.5371095 c -0.0043,0.08896 -0.0059,0.174366 0.0098,0.289062 0.01568,0.114697 -0.09514,0.250796 0.322266,0.646485 0.208703,0.197844 0.782113,0.333289 1.101562,0.193359 0.319449,-0.13993 0.399852,-0.303501 0.460938,-0.40039 0.122171,-0.19378 0.132073,-0.28016 0.158203,-0.378907 l 0.984375,-3.7148435 a 1.0001,1.0001 0 0 0 0.0078,-0.033203 c 3.91e-4,-0.00172 0.09559,-0.070422 0.06055,-0.068359 a 1.0001,1.0001 0 0 0 0.01563,0 c -0.10843,0.00827 0.05161,0.1755787 0.06445,0.125 A 1.0001,1.0001 0 0 0 17,7.3222656 L 15.933594,11.720703 C 15.494669,13.534661 15.061949,17.01618 14.935547,18 H 9.9433594 A 1.0001,1.0001 0 0 0 9.9375,18 C 9.8173867,18.000797 9.5764847,17.908921 9.203125,17.519531 8.8297653,17.130142 8.3960158,16.505199 7.9414062,15.798828 7.3705071,14.911767 6.7224147,13.950717 5.9902344,13.056641 c 0.3743801,0.249151 0.7330681,0.460375 1.3378906,1.082031 a 1.0001,1.0001 0 0 0 1.6835938,-0.445313 c 0,0 0.039372,-0.150718 0.0625,-0.335937 0.023128,-0.185219 0.079442,-0.410726 -0.066406,-0.820313 L 9.0527344,12.708984 7.9160156,5.84375 a 1.0001,1.0001 0 0 0 -0.00195,-0.00195 c 0.00378,0.022445 0.07954,-0.079143 0.052734,-0.1015625 -0.00789,0.020815 0.058095,0.074779 0.056641,0.064453 a 1.0001,1.0001 0 0 0 0.00586,0.035156 l 0.8496094,4.7871093 c 0.052688,0.296741 0.2624642,0.626987 0.5507812,0.792969 0.288317,0.165982 0.6041155,0.183623 0.8710935,0.111328 0.533956,-0.144591 0.907553,-0.733621 0.878907,-1.248047 L 10.890625,5.109375 a 1.0001,1.0001 0 0 0 0,-0.00781 C 10.891734,5.1192736 11.019228,4.9958762 10.953125,5 Z m -3.8359375,8.179688 a 1.0001,1.0001 0 0 0 0.00781,0.02734 c -0.019197,-0.05391 -0.00379,-0.0029 -0.00977,-0.02539 z"
     id="path1186" />
  <path
     id="path4236-1-58-5-6"
     style="display:inline;fill:#E5C890;fill-opacity:1;stroke:none;stroke-width:0.719447"
     d="M 10.89031,4.0019022 C 10.332612,4.0366942 9.856493,4.5912853 9.89238,5.1643665 l 0.288291,5.1741055 c 0.01439,0.258416 -0.282716,0.31093 -0.317688,0.113967 L 9.0131248,5.6658217 C 8.9368742,5.1244398 8.4129404,4.691518 7.8821384,4.7312916 7.2981055,4.7852664 6.828537,5.4138395 6.9285604,6.007723 l 1.1381504,6.864722 c 0.072587,0.203847 -0.022135,0.569836 -0.022135,0.569836 C 4.496382,9.795335 4,12.416718 4,12.416718 c 2.411147,1.673219 3.8736633,6.59698 5.943225,6.583253 L 15.789475,19 c 0,0 0.663495,-5.168757 1.117045,-7.043156 L 17.970979,7.5577143 C 18.141317,6.8871137 17.534625,6.1388256 16.862166,6.190109 16.407285,6.216877 15.990118,6.5774512 15.886412,7.0334657 l -0.983216,3.7153273 c -0.05309,0.200634 -0.0967,0.120779 -0.08871,-0.04558 l 0.266142,-5.5388055 c 0.03889,-0.61869 -0.528601,-1.2024348 -1.130538,-1.1624643 -0.520322,0.033114 -0.977151,0.5130963 -0.99793,1.0484972 L 12.70822,10.110575 C 12.69583,10.3677 12.302462,10.372739 12.28741,10.08782 L 12.021295,5.0504723 C 11.9988,4.4694627 11.454905,3.9652358 10.89031,4.0019752 Z" />
</svg>

<svg xmlns="http://www.w3.org/2000/svg" width="24" height="24">
    <defs>
        <filter id="a" width="1.048" height="1.046" x="-.024" y="-.023" style="color-interpolation-filters:sRGB">
            <feGaussianBlur stdDeviation=".162"/>
        </filter>
    </defs>
    <path d="M11.326 3.504c-.773.049-1.274.55-1.59 1.174a2.03 2.03 0 0 0-1.43-.444l-.015.002c-1.244.115-2.052 1.224-1.848 2.438l-.002-.002.83 5.002c-.125-.075-.294-.269-.416-.328-.704-.345-1.41-.433-1.996-.227-1.17.412-1.341 1.611-1.341 1.611a1 1 0 0 0 .412 1.008c.906.629 1.887 2.18 2.83 3.645.47.732.94 1.439 1.498 2.021s1.276 1.102 2.191 1.096h5.84a1 1 0 0 0 .992-.873s.69-5.253 1.098-6.936l1.06-4.386c.353-1.389-.696-2.713-2.144-2.61-.281.018-.493.177-.729.291l.014-.273-.002.014c.08-1.266-.907-2.307-2.191-2.223-.606.038-1.076.348-1.422.773-.39-.467-.916-.781-1.588-.756-.02.001-.03-.018-.049-.017zm2.193 1.994.002.014-.002-.004zm-2.066.002h.002c-.068.004.067.11.066.09l.002.013.266 5.038c.032.6.642 1.15 1.188 1.162.272.006.556-.075.8-.278a1.26 1.26 0 0 0 .43-.867l.244-5.06V5.59c0 .009.117-.093.063-.09h.002c-.082.005.064.13.066.102v.015l-.266 5.537c-.004.09-.005.175.01.29.016.114-.095.25.323.646.208.198.782.333 1.101.193.32-.14.4-.303.461-.4.122-.194.132-.28.158-.38l.985-3.714.007-.033c0-.002.096-.07.061-.069h.016c-.109.009.051.176.064.125l-.002.01-1.066 4.399c-.44 1.814-.872 5.295-.999 6.279h-4.998c-.12 0-.36-.091-.734-.48-.373-.39-.807-1.015-1.262-1.721-.57-.887-1.219-1.848-1.95-2.742.374.249.732.46 1.337 1.082a1 1 0 0 0 1.684-.446s.039-.15.062-.336c.023-.185.08-.41-.066-.82l.045.172-1.137-6.865-.002-.002c.004.022.08-.08.053-.102-.008.021.058.075.056.065l.006.035.85 4.787c.053.297.262.627.55.793s.605.183.872.111c.534-.144.907-.733.879-1.248l-.29-5.174v-.007c.002.017.13-.106.063-.102m-3.836 8.18.008.027c-.02-.054-.004-.003-.01-.025z" style="color:#000;opacity:.1;fill:#000;fill-opacity:1;stroke-linecap:round;stroke-linejoin:round;-inkscape-stroke:none;filter:url(#a)"/>
    <path d="M10.826 3.004c-.773.049-1.274.55-1.59 1.174a2.03 2.03 0 0 0-1.43-.444l-.015.002c-1.244.115-2.052 1.225-1.848 2.438l-.002-.002.83 5.002c-.125-.075-.294-.269-.416-.328-.704-.345-1.41-.433-1.996-.227-1.17.412-1.341 1.611-1.341 1.611a1 1 0 0 0 .412 1.008c.906.629 1.888 2.18 2.83 3.645.47.732.94 1.44 1.498 2.021.558.583 1.277 1.102 2.191 1.096h5.84a1 1 0 0 0 .992-.873s.69-5.253 1.098-6.936l1.06-4.386c.353-1.389-.696-2.713-2.144-2.61-.281.018-.493.177-.729.291l.014-.273-.002.014c.08-1.266-.907-2.307-2.191-2.223-.606.038-1.076.348-1.422.773-.389-.467-.916-.781-1.588-.756-.02.001-.03-.018-.049-.017zm2.194 1.994.002.014-.002-.004zM10.953 5h.002c-.068.004.067.11.067.09l.002.014.265 5.037c.032.6.642 1.15 1.188 1.162.272.006.556-.075.8-.278a1.26 1.26 0 0 0 .43-.867l.244-5.06V5.09c0 .009.117-.093.063-.09h.002c-.082.005.064.13.066.102v.015l-.265 5.537c-.005.09-.006.175.01.29.015.114-.096.25.322.646.208.198.782.333 1.101.193.32-.14.4-.303.461-.4.122-.194.132-.28.158-.38l.985-3.714.007-.033c0-.002.096-.07.061-.068h.016c-.109.008.051.175.064.125l-.002.01-1.066 4.398c-.44 1.814-.872 5.295-.998 6.279H9.938c-.12 0-.362-.091-.735-.48-.373-.39-.807-1.015-1.262-1.721-.57-.887-1.219-1.848-1.95-2.742.374.249.732.46 1.337 1.082a1 1 0 0 0 1.684-.446s.04-.15.062-.336c.023-.185.08-.41-.066-.82l.045.172-1.137-6.865-.002-.002c.004.022.08-.08.053-.102-.008.021.058.075.056.065l.006.035.85 4.787c.053.297.262.627.55.793s.605.184.872.111c.534-.144.907-.733.879-1.248l-.29-5.174v-.007c.002.017.13-.106.063-.102m-3.836 8.18.008.027c-.02-.054-.004-.003-.01-.025z" style="color:#000;fill:#303446;stroke-linecap:round;stroke-linejoin:round;-inkscape-stroke:none;fill-opacity:1"/>
    <path d="M10.89 4.002c-.557.035-1.034.59-.998 1.162l.289 5.174c.014.259-.283.311-.318.114l-.85-4.786c-.076-.542-.6-.974-1.13-.935-.585.054-1.054.683-.954 1.277l1.138 6.864c.072.204-.022.57-.022.57C4.496 9.795 4 12.417 4 12.417 6.411 14.09 7.874 19.014 9.943 19h5.846s.664-5.169 1.118-7.043l1.064-4.4c.17-.67-.436-1.418-1.109-1.367-.455.027-.872.387-.976.843l-.983 3.716c-.053.2-.097.12-.089-.046l.267-5.539c.039-.618-.529-1.202-1.13-1.162-.521.033-.978.513-.999 1.048l-.244 5.06c-.012.258-.406.263-.42-.022L12.02 5.05c-.022-.58-.566-1.085-1.13-1.048" style="display:inline;fill:#e5c890;fill-opacity:1;stroke:none;stroke-width:.719447"/>
</svg>
